lib/icons/pencil.svg

<svg width="16" height="16" viewBox="0 0 16 16" fill="none" xmlns="http://www.w3.org/2000/svg">
<path fill-rule="evenodd" clip-rule="evenodd" d="M11.7082 0.143758C11.5142 -0.0472445 11.2031 -0.0480134 11.0082 0.142028L0.904039 9.99522C0.825462 10.0718 0.774279 10.1722 0.758387 10.2808L0.00527543 15.427C-0.0182048 15.5875 0.0375821 15.7493 0.154928 15.8613C0.272275 15.9732 0.436606 16.0212 0.595761 15.9902L5.74201 14.986C5.84021 14.9669 5.9304 14.9187 6.00093 14.8477L15.8541 4.93178C15.9479 4.83744 16.0001 4.70964 15.9994 4.57665C15.9987 4.44365 15.945 4.31643 15.8503 4.22311L11.7082 0.143758ZM1.09693 14.8735L1.72335 10.593L8.85326 3.64023L12.3326 7.05695L5.3998 14.0339L1.09693 14.8735ZM13.0375 6.34759L14.7908 4.58318L11.3556 1.20007L9.56938 2.94191L13.0375 6.34759Z" fill="#7A859E"/>
</svg>

<svg width="16" height="16" fill="none" xmlns="http://www.w3.org/2000/svg"><path fill-rule="evenodd" clip-rule="evenodd" d="M11.708.144a.5.5 0 0 0-.7-.002L.904 9.995a.5.5 0 0 0-.146.286l-.753 5.146a.5.5 0 0 0 .59.563l5.147-1.004a.5.5 0 0 0 .259-.138l9.853-9.916a.5.5 0 0 0-.004-.709L11.708.143ZM1.097 14.874l.626-4.281 7.13-6.953 3.48 3.417L5.4 14.034l-4.303.84Zm11.94-8.526 1.754-1.765L11.356 1.2 9.569 2.942l3.468 3.406Z" fill="#7A859E"/></svg>
